svgs/rootless_james_dsp.svg

<svg width="192" height="192" viewBox="0 0 192 192" fill="none" xmlns="http://www.w3.org/2000/svg">
<path d="M59.2 147.935V170" stroke="black" stroke-width="12" stroke-linecap="round"/>
<path d="M59.2 22V103.535" stroke="black" stroke-width="12" stroke-linecap="round"/>
<path d="M59.2 147.935C71.4607 147.935 81.4 137.995 81.4 125.735C81.4 113.474 71.4607 103.535 59.2 103.535C46.9393 103.535 37 113.474 37 125.735C37 137.995 46.9393 147.935 59.2 147.935Z" stroke="black" stroke-width="12" stroke-linecap="round" stroke-linejoin="round"/>
<path d="M133.218 44.0654V22" stroke="black" stroke-width="12" stroke-linecap="round"/>
<path d="M133.218 170V88.4649" stroke="black" stroke-width="12" stroke-linecap="round"/>
<path d="M133.217 44.0655C120.957 44.0655 111.017 54.0048 111.017 66.2655C111.017 78.5262 120.957 88.4655 133.217 88.4655C145.478 88.4655 155.417 78.5262 155.417 66.2655C155.417 54.0048 145.478 44.0655 133.217 44.0655Z" stroke="black" stroke-width="12" stroke-linecap="round" stroke-linejoin="round"/>
</svg>

<svg xmlns="http://www.w3.org/2000/svg" width="192" height="192" fill="none" viewBox="0 0 192 192"><path stroke="#000" stroke-linecap="round" stroke-width="12" d="M59.2 147.935V170M59.2 22v81.535"/><path stroke="#000" stroke-linecap="round" stroke-linejoin="round" stroke-width="12" d="M59.2 147.935c12.26 0 22.2-9.94 22.2-22.2 0-12.261-9.94-22.2-22.2-22.2s-22.2 9.939-22.2 22.2c0 12.26 9.94 22.2 22.2 22.2Z"/><path stroke="#000" stroke-linecap="round" stroke-width="12" d="M133.218 44.065V22M133.218 170V88.465"/><path stroke="#000" stroke-linecap="round" stroke-linejoin="round" stroke-width="12" d="M133.217 44.066c-12.26 0-22.2 9.939-22.2 22.2 0 12.26 9.94 22.2 22.2 22.2 12.261 0 22.2-9.94 22.2-22.2 0-12.261-9.939-22.2-22.2-22.2Z"/></svg>
